X:683
T:Planxty O'Neill
C:O'Carolan
B:O'Neill's 683
Z: 1997 by John Chambers <jc@trillian.mit.edu>
N:"Animated"
N:collected by J.O'Neill
N:There are some very unclear slurs in my copy of O'Neill's.
M:6/8
L:1/8
K:D
AFD DA,D|F/G/A.B AFD|GFE GFED|BBc/d/ ecA|
|d/f/e/d/c/e/ d/c/B/A/G/F/|G/A/G/F/E/D/ CB,A,|.DDE FGA|.EEF FAB|
|AFD dAF|BGE ecA|dAF AGEC|D3 D2z||
||A2d d/c/dc|BcB/A/ GFE|Ee.e edc|BAG F2G|
|.Ag/e/c/e/ .dc/d/e/d/|.Bb/a/f/a/ .gf/g/a/g/|f/e/d/c/B/A/ G/F/E/F/G/A/|BEE dcAA|
|A/a/.f.d A/G/.E.E|G/F/.E.D C/B,/.A,.A,|AdF BAGE|D3 D2z|]
